src/lib/packages/icons/src/assets/filled/note.svg

<svg width="24" height="24" viewBox="0 0 24 24" fill="none" xmlns="http://www.w3.org/2000/svg">
<path d="M17.6709 3.5H17.1941V2C17.1941 1.586 16.8581 1.25 16.4441 1.25C16.0301 1.25 15.6941 1.586 15.6941 2V3.5H12.75V2C12.75 1.586 12.414 1.25 12 1.25C11.586 1.25 11.25 1.586 11.25 2V3.5H8.30591V2C8.30591 1.586 7.96991 1.25 7.55591 1.25C7.14191 1.25 6.80591 1.586 6.80591 2V3.5H6.3291C4.1101 3.5 3 4.60899 3 6.82599V18.674C3 20.891 4.1091 22 6.3291 22H17.6721C19.8911 22 21.001 20.891 21.001 18.674V6.82599C21 4.60899 19.8909 3.5 17.6709 3.5ZM13 15.75H8C7.586 15.75 7.25 15.414 7.25 15C7.25 14.586 7.586 14.25 8 14.25H13C13.414 14.25 13.75 14.586 13.75 15C13.75 15.414 13.414 15.75 13 15.75ZM16 11.75H8C7.586 11.75 7.25 11.414 7.25 11C7.25 10.586 7.586 10.25 8 10.25H16C16.414 10.25 16.75 10.586 16.75 11C16.75 11.414 16.414 11.75 16 11.75Z" fill="currentColor"/>
</svg>

<svg xmlns="http://www.w3.org/2000/svg" width="24" height="24" fill="none"><path fill="currentColor" d="M17.67 3.5h-.476V2a.75.75 0 0 0-1.5 0v1.5H12.75V2a.75.75 0 0 0-1.5 0v1.5H8.306V2a.75.75 0 0 0-1.5 0v1.5h-.477C4.11 3.5 3 4.609 3 6.826v11.848C3 20.891 4.11 22 6.33 22h11.342c2.22 0 3.329-1.109 3.329-3.326V6.826C21 4.609 19.891 3.5 17.671 3.5ZM13 15.75H8a.75.75 0 0 1 0-1.5h5a.75.75 0 0 1 0 1.5Zm3-4H8a.75.75 0 0 1 0-1.5h8a.75.75 0 0 1 0 1.5Z"/></svg>
